src/icons/newWindow.svg

<svg viewBox="0 0 20 20" version="1.1" xmlns="http://www.w3.org/2000/svg" xmlns:xlink="http://www.w3.org/1999/xlink">
    <!-- Generator: Sketch 51.3 (57544) - http://www.bohemiancoding.com/sketch -->
    <desc>Created with Sketch.</desc>
    <defs>
        <rect id="path-1" x="0" y="0" width="20" height="20"></rect>
    </defs>
    <g id="Symbols" stroke="none" stroke-width="1" fill="none" fill-rule="evenodd">
        <g id="LiveChat/components/desktop/header/default" transform="translate(-330.000000, -19.000000)">
            <g id="icon/new_window--white" transform="translate(329.000000, 18.000000)">
                <g id="20x20/arrow-back-white">
                    <mask id="mask-2" fill="white">
                        <use xlink:href="#path-1"></use>
                    </mask>
                    <g id="Mask"></g>
                </g>
                <g id="external-link-square" transform="translate(2.000000, 2.000000)" fill="#FFFFFF" stroke="#FFFFFF">
                    <path d="M14.2857143,0 L1.71428571,0 C0.7675,0 0,0.7675 0,1.71428571 L0,14.2857143 C0,15.2325 0.7675,16 1.71428571,16 L14.2857143,16 C15.2325,16 16,15.2325 16,14.2857143 L16,1.71428571 C16,0.7675 15.2325,0 14.2857143,0 Z M14.8571429,14.2857143 C14.8571429,14.6007857 14.6007857,14.8571429 14.2857143,14.8571429 L1.71428571,14.8571429 C1.39921429,14.8571429 1.14285714,14.6007857 1.14285714,14.2857143 L1.14285714,1.71428571 C1.14285714,1.39921429 1.39921429,1.14285714 1.71428571,1.14285714 L14.2857143,1.14285714 C14.6007857,1.14285714 14.8571429,1.39921429 14.8571429,1.71428571 L14.8571429,14.2857143 Z M3.55410714,12.2438571 C3.38675,12.0765 3.38675,11.8051429 3.55410714,11.63775 L10.52375,4.66810714 L10.4985,4.64285714 L7.28571429,4.65507143 C7.04903571,4.65507143 6.85714286,4.46317857 6.85714286,4.2265 L6.85714286,3.86939286 C6.85714286,3.63267857 7.049,3.44082143 7.28571429,3.44082143 L12.1428571,3.42857143 C12.3795357,3.42857143 12.5714286,3.62042857 12.5714286,3.85714286 L12.5591786,8.71428571 C12.5591786,8.95096429 12.3672857,9.14285714 12.1306071,9.14285714 L11.7735,9.14285714 C11.5368214,9.14285714 11.3449286,8.95096429 11.3449286,8.71428571 L11.3571429,5.5015 L11.3318929,5.47625 L4.36225,12.4458929 C4.19489286,12.61325 3.92353571,12.61325 3.75614286,12.4458929 L3.55410714,12.2438571 Z" id="Shape" stroke-width="0.3" fill-rule="nonzero"></path>
                </g>
            </g>
        </g>
    </g>
</svg>

<?xml version="1.0" encoding="UTF-8"?><svg version="1.1" viewBox="0 0 20 20" xmlns="http://www.w3.org/2000/svg" xmlns:xlink="http://www.w3.org/1999/xlink"><defs><rect id="a" width="20" height="20"/></defs><g fill="none" fill-rule="evenodd"><g transform="translate(-330 -19)"><g transform="translate(329 18)"><mask fill="white"><use xlink:href="#a"/></mask><g transform="translate(2 2)" fill="#fff" stroke="#fff"><path d="m14.286 0h-12.571c-0.94679 0-1.7143 0.7675-1.7143 1.7143v12.571c0 0.94679 0.7675 1.7143 1.7143 1.7143h12.571c0.94679 0 1.7143-0.7675 1.7143-1.7143v-12.571c0-0.94679-0.7675-1.7143-1.7143-1.7143zm0.57143 14.286c0 0.31507-0.25636 0.57143-0.57143 0.57143h-12.571c-0.31507 0-0.57143-0.25636-0.57143-0.57143v-12.571c0-0.31507 0.25636-0.57143 0.57143-0.57143h12.571c0.31507 0 0.57143 0.25636 0.57143 0.57143v12.571zm-11.303-2.0419c-0.16736-0.16736-0.16736-0.43871 0-0.60611l6.9696-6.9696-0.02525-0.02525-3.2128 0.012214c-0.23668 0-0.42857-0.19189-0.42857-0.42857v-0.35711c0-0.23671 0.19186-0.42857 0.42857-0.42857l4.8571-0.01225c0.23668 0 0.42857 0.19186 0.42857 0.42857l-0.01225 4.8571c0 0.23668-0.19189 0.42857-0.42857 0.42857h-0.35711c-0.23668 0-0.42857-0.19189-0.42857-0.42857l0.012214-3.2128-0.02525-0.02525-6.9696 6.9696c-0.16736 0.16736-0.43871 0.16736-0.60611 0l-0.20204-0.20204z" fill-rule="nonzero" stroke-width=".3"/></g></g></g></g></svg>
